src/assets/link.svg

<?xml version="1.0" ?><svg data-name="Layer 21" height="24" id="Layer_21" viewBox="0 0 24 24" width="24" xmlns="http://www.w3.org/2000/svg"><title/><path d="M9.87012,5.541l4.26953,4.26953a2.02108,2.02108,0,0,1,0,2.855l-1.42383,1.42285,1.41406,1.415,1.42383-1.42334a4.02449,4.02449,0,0,0,0-5.68359L11.28418,4.127a4.01858,4.01858,0,0,0-5.68359,0L4.17676,5.55029a4.02212,4.02212,0,0,0,0,5.68311L5.59082,9.81934a2.02108,2.02108,0,0,1,0-2.855L7.01465,5.541A2.06778,2.06778,0,0,1,9.87012,5.541Z"/><path d="M19.82324,12.666l-1.41406,1.41406a2.02108,2.02108,0,0,1,0,2.855L16.98535,18.3584a2.06778,2.06778,0,0,1-2.85547,0L9.86035,14.08887a2.02108,2.02108,0,0,1,0-2.855L11.28418,9.811,9.87012,8.396,8.44629,9.81934a4.02449,4.02449,0,0,0,0,5.68359l4.26953,4.26953a4.01917,4.01917,0,0,0,5.68359.00049l1.42383-1.42334A4.02449,4.02449,0,0,0,19.82324,12.666Z"/></svg>

<svg xmlns="http://www.w3.org/2000/svg" width="24" height="24" data-name="Layer 21"><path d="m9.87 5.541 4.27 4.27a2.021 2.021 0 0 1 0 2.855l-1.424 1.422 1.414 1.415 1.424-1.423a4.024 4.024 0 0 0 0-5.684l-4.27-4.269a4.019 4.019 0 0 0-5.683 0L4.177 5.55a4.022 4.022 0 0 0 0 5.683L5.59 9.82a2.021 2.021 0 0 1 0-2.855l1.424-1.423a2.068 2.068 0 0 1 2.855 0Z"/><path d="M19.823 12.666 18.41 14.08a2.021 2.021 0 0 1 0 2.855l-1.424 1.423a2.068 2.068 0 0 1-2.855 0l-4.27-4.27a2.021 2.021 0 0 1 0-2.854l1.424-1.423L9.87 8.396 8.446 9.819a4.024 4.024 0 0 0 0 5.684l4.27 4.27a4.02 4.02 0 0 0 5.683 0l1.424-1.423a4.024 4.024 0 0 0 0-5.684Z"/></svg>
